static/images/tech-icons/dark/python.svg

<svg height="38" viewBox="0 0 92 38" width="92" xmlns="http://www.w3.org/2000/svg"><g transform="translate(-27.69 -36.53)"><path d="m73.2551951 48.1619793c0-2.2733066-.6482118-3.4403924-1.9446356-3.5043006-.5158316-.024346-1.0194881.0578218-1.5094522.2480248-.3910571.1399893-.6542971.2784571-.7927656.4184467v5.4261119c.8292845.5203954 1.565752.7623338 2.2078771.7242932 1.3588102-.089776 2.0389763-1.1929535 2.0389763-3.312576zm1.5992268.0943407c0 1.1549127-.2708488 2.113536-.8155905 2.8758697-.6071282.8627609-1.4485863 1.307075-2.5243742 1.331422-.8110259.0258676-1.6463972-.2282446-2.5061155-.7608129v4.9315843l-1.3907645-.4960492v-10.9465651c.228243-.2799789.5219168-.5203955.877977-.7242931.827764-.4823548 1.8335566-.7303796 3.0173809-.7425527l.0197808.0197811c1.0818746-.0136946 1.9157254.4306198 2.5015508 1.3314213.5462623.8262419.8201552 1.8852924.8201552 3.1801946z"/><path d="m83.3542141 51.4928148c0 1.5490135-.1552052 2.6217588-.4656155 3.2182356-.311934.5964768-.9053667 1.0727453-1.7818232 1.4272835-.7105983.2799781-1.4790185.4321407-2.3037384.4580082l-.2297651-.8764549c.8384139-.1141216 1.4288055-.2282447 1.7711701-.3423662.6740794-.2282431 1.1366539-.5782166 1.3907645-1.0468778.2038976-.3819278.3043252-1.1107848.3043252-2.1896166v-.3621465c-.951015.4321415-1.9476798.6466906-2.9899913.6466906-.6847309 0-1.2888165-.2145491-1.8092112-.6466906-.5843049-.4701819-.8764565-1.0666587-.8764565-1.7894301v-5.7882586l1.3907645-.4762684v5.8262992c0 .6223444.200855 1.1016559.6025635 1.4379349s.9221048.4975711 1.5596653.4853982c.6375604-.0136947 1.3207691-.2601979 2.0465836-.7425526v-6.7970954h1.3907645z"/><path d="m88.7833698 52.3875297c-.1658566.013694-.3180192.0197807-.4580083.0197807-.7866804 0-1.3998938-.1871594-1.8381229-.5630006-.4367054-.3758411-.6558191-.894715-.6558191-1.5566215v-5.4778472h-.952537v-.8749338h.952537v-2.3235203l1.3892424-.4945278v2.8180481h1.5627079v.8749338h-1.5627079v5.4398066c0 .5219171.1399891.8916718.4199688 1.1077425.2404166.17803.6223443.2799788 1.1427391.3058465z"/><path d="m97.2040388 52.2734081h-1.3907645v-5.3682905c0-.546263-.1278171-1.0164449-.3819277-1.4090239-.2936738-.4443143-.701469-.6664715-1.2249079-.6664715-.6375605 0-1.4348923.3362789-2.3919924 1.0088369v6.434949h-1.3907661v-12.8318572l1.3907661-.4382278v5.8445587c.8886284-.6466904 1.8594241-.9707963 2.9139092-.9707963.7364659 0 1.3329427.2480248 1.7894304.7425526.4580083.4945278.6862529 1.1107857.6862529 1.8472518z"/><path d="m104.596089 47.9428655c0-.8734124-.165857-1.5946623-.49605-2.1652713-.392579-.6953824-1.00275-1.0620937-1.827471-1.1001345-1.524667.0882544-2.2854781 1.1807805-2.2854781 3.2745354 0 .9601449.1582481 1.7620408.4777891 2.4056879.407795.8201555 1.019488 1.2249075 1.835079 1.2112129 1.530753-.012173 2.296131-1.2203426 2.296131-3.6260304zm1.523146.0091296c0 1.2431671-.318019 2.2778715-.952537 3.1041135-.698425.9251474-1.663135 1.3892429-2.89413 1.3892429-1.220342 0-2.171357-.4640955-2.8576095-1.3892429-.6223443-.826242-.9327562-1.8609464-.9327562-3.1041135 0-1.1686074.3362794-2.1515766 1.0088367-2.9519509.7106-.8490664 1.644877-1.2751212 2.799789-1.2751212 1.154913 0 2.095276.4260548 2.81957 1.2751212.672558.8003743 1.008837 1.7833435 1.008837 2.9519509z"/><path d="m114.092546 52.2734081h-1.390765v-5.6726153c0-.6223443-.187159-1.1077424-.56148-1.457716-.374319-.348452-.873412-.5173523-1.495756-.5036576-.660384.012173-1.288815.2282437-1.885292.6466902v6.9872987h-1.390765v-7.1592422c.800375-.582782 1.536841-.9631881 2.209398-1.1412181.634518-.165857 1.194476-.2480248 1.676831-.2480248.330193 0 .640603.0319542.932755.0958624.546264.1262948.990578.3606249 1.332942.7045119.381928.3804062.572132.8368934.572132 1.3709836z"/><path d="m51.3790852 40.0692135c2.0192362.3333255 3.7189202 1.8374222 3.7189202 3.8346204v7.0163635c0 2.0578035-1.6500986 3.7437138-3.7189202 3.7437138h-7.4350865c-2.5233563 0-4.6500279 2.1514635-4.6500279 4.5839135v3.3663116h-2.5564136c-2.1624836 0-3.421407-1.5591907-3.9503201-3.7409583-.7134819-2.9310596-.6831796-4.6775752 0-7.484672.5922724-2.4489781 2.4847899-3.7409587 4.6472733-3.7409587h10.2284084v-.9366171h-7.4378405v-2.8070963c0-2.1266716.5702345-3.2836692 3.7189204-3.8346204 2.1376913-.3746468 4.8786737-.4214776 7.4350865 0zm-7.9006401 1.964141c-.7713316 0-1.3939065.6280843-1.3939065 1.4049256 0 .7740865.6225749 1.4021708 1.3939065 1.4021708.7685768 0 1.3939059-.6280843 1.3939059-1.4021708 0-.7768413-.6253291-1.4049256-1.3939059-1.4049256z"/><path d="m58.8169271 47.6475473c2.165237 0 3.1844973 1.6087775 3.7189201 3.7409587.7437844 2.9613622.7768408 5.1761862 0 7.484672-.7520488 2.2423713-1.5564369 3.7409583-3.7189201 3.7409583h-11.1540083v.9366168h7.4350866v2.8070968c0 2.1266715-1.8456865 3.2037817-3.7189202 3.7409583-2.8181151.8098988-5.0797692.6859344-7.4350865 0-1.9668956-.5729884-3.7189204-1.7437603-3.7189204-3.7409583v-7.0163635c0-2.0192362 1.6831558-3.7437137 3.7189204-3.7437137h7.4350865c2.4765263 0 4.6500279-2.1404451 4.6500279-4.6775753v-3.2726501zm-6.9722873 17.7736858c-.7685778 0-1.393907.6280845-1.393907 1.4021714 0 .7768408.6253292 1.4049253 1.393907 1.4049253.7713317 0 1.3939055-.6280845 1.3939055-1.4049253 0-.7740869-.6225738-1.4021714-1.3939055-1.4021714z"/><path d="m73.3437466 64.599195c0 .9081934-.2145428 1.6616936-.6436081 2.2604992-.4789692.6786496-1.1425346 1.0279539-1.9906961 1.0479145-.6386219.0199606-1.2971964-.1796423-1.9757265-.5988087v3.8772815l-1.0776691-.389224.0149663-8.6078647c.1796116-.2195572.4091145-.4091798.6885119-.5688678.6485943-.3792389 1.4368889-.5738517 2.3648853-.5838382l.0149679.0149704c.8481615-.0099725 1.5017467.3393318 1.9607603 1.0479145.4290653.6487133.6436081 1.4820529.6436081 2.5000233m-1.2572805-.0748507c0-1.7864396-.5138943-2.7046101-1.5416673-2.7545179-.4091191-.0199543-.8082549.0449176-1.1974105.1946128-.3093332.109788-.5188805.2195682-.6286403.3293452v4.266507c.6585729.4091861 1.2423095.5988072 1.751213.5688663 1.0776643-.069859 1.6165051-.9381296 1.6165051-2.6048134m8.1678838-.1646734c0 .9780555-.2494679 1.791436-.7483818 2.4401431-.5488194.7285495-1.3071782 1.0928242-2.2750812 1.0928242-.9579306 0-1.7063109-.3642747-2.2451438-1.0928242-.4889432-.6487071-.7334139-1.4620876-.7334139-2.4401431 0-.9181674.2644264-1.6916267.7932839-2.320381.5587901-.6686615 1.2922025-1.0030031 2.2002417-1.0030031.908033 0 1.6464347.3343416 2.2152096 1.0030031.5288513.6287543.7932855 1.4022136.7932855 2.320381m-1.1974106 0c0-.6886252-.1297248-1.2574914-.3891588-1.7066019-.3093363-.5489025-.7882992-.838325-1.4368936-.8682721-1.1974121.0698668-1.7961151.9281571-1.7961151 2.574874h.0149679c-.0000015.7584935.1247277 1.3922317.3741909 1.9012162.3193071.6487086.7982701.9680736 1.4368921.9580917 1.1974059-.0099787 1.7961166-.9630803 1.7961166-2.8593079m10.6859527-3.08386-1.7811487 6.2874836-.8980575.3143733-1.7212772-5.2245988-1.4069579 4.9102255-.8980575.3143733-2.110436-6.4820964 1.0028311-.3592846 1.6763752 5.1048382 1.3321184-4.7455536 1.0028312-.3592846 1.691343 5.1048382 1.436892-5.1048382zm5.8993546 5.8832877c-.4190992.2694634-.7932901.4540959-1.1225727.5538973-.3991405.1197621-.8032671.1796423-1.2123784.1796423-.7284278 0-1.3071751-.1846324-1.7362451-.5538973-.7783176-.6586874-1.1624871-1.5768595-1.1525085-2.7545163.0099786-.968069.2095473-1.766479.5987061-2.3952318.4689844-.7385235 1.147516-1.1077947 2.0355981-1.1077947 1.6564133 0 2.4995885 1.0928305 2.5295306 3.2784728h-4.0113263c-.0598716.8483147.0997828 1.536943.4789645 2.065888.3791771.5189679.8780973.7684707 1.4967636.7485101.5188727-.0199606 1.1325451-.1996013 1.8410188-.5389269zm-1.1525084-3.4281758c0-.5289419-.1097661-.9780476-.3292873-1.3473172-.2594433-.4191602-.613677-.6287481-1.0627027-.6287481-.8980591 0-1.3969793.6537035-1.496762 1.9610949zm6.4491778-2.6646951c-.099788.1996091-.244476.4940233-.434061.883241-.279399-.059874-.483957-.0898149-.6136724-.0898211h-.0149678c-.5987077.0000062-1.1325529.1996091-1.6015373.5988087v5.299451h-1.0926369v-5.4491524c.4091144-.4590814.9279917-.7984054 1.5566336-1.0179736.54881-.1995966 1.0377531-.2994043 1.4668278-.2994043.239478 0 .483949.024957.733414.0748507m5.958288 6.0928709c-.419099.2694634-.79329.4540959-1.122573.5538973-.39914.1197621-.803267.1796423-1.212378.1796423-.728428 0-1.307175-.1846324-1.736245-.5538973-.778318-.6586874-1.162487-1.5768595-1.152509-2.7545163.009979-.968069.209547-1.766479.598706-2.3952318.468985-.7385235 1.147516-1.1077947 2.035598-1.1077947 1.656414 0 2.499589 1.0928305 2.529529 3.2784728h-4.011324c-.059872.8483147.099782 1.536943.478964 2.065888.379177.5189679.878097.7684707 1.496764.7485101.518872-.0199606 1.132545-.1996013 1.841018-.5389269zm-1.152509-3.4281758c0-.5289419-.109766-.9780476-.329287-1.3473172-.259443-.4191602-.613677-.6287481-1.062703-.6287481-.898059 0-1.39698.6537035-1.496762 1.9610949zm7.975879 2.9940405c-.977889.7584904-2.025623 1.1427242-3.143203 1.1527045-.82821 0-1.481797-.3742551-1.960759-1.1227652-.419094-.6487071-.628641-1.4121861-.628641-2.2904401 0-.8782478.224515-1.6517071.673543-2.320381.508899-.7485039 1.187431-1.1177672 2.035599-1.1077947.648594.0000078 1.302179.1596895 1.96076.4790466v-3.8473406l1.047733-.3592846zm-1.062701-.1197621v-4.2515365c-.638624-.3991996-1.202405-.5988072-1.691343-.5988072-.618665 0-1.087651.3243598-1.406958.9730622-.25944.518971-.389157 1.1227683-.389157 1.8113935 0 .6586921.124727 1.2325485.374191 1.7215739.309328.6387283.763345.9580917 1.362054.9580917.558787 0 1.142525-.2045915 1.751213-.6137776" transform="matrix(.99982864 .01851196 -.01851196 .99982864 1.204886 -1.667809)"/></g></svg>

<?xml version="1.0" encoding="UTF-8"?>
<svg width="92px" height="38px" viewBox="0 0 92 38" version="1.1" xmlns="http://www.w3.org/2000/svg" xmlns:xlink="http://www.w3.org/1999/xlink">
    <title>python</title>
    <g id="python" stroke="none" stroke-width="1" fill="none" fill-rule="evenodd">
        <g id="2" transform="translate(-27.690000, -36.530000)" fill="#000000" fill-rule="nonzero">
            <path d="M73.2551951,48.1619793 C73.2551951,45.8886727 72.6069833,44.7215869 71.3105595,44.6576787 C70.7947279,44.6333327 70.2910714,44.7155005 69.8011073,44.9057035 C69.4100502,45.0456928 69.1468102,45.1841606 69.0083417,45.3241502 L69.0083417,50.7502621 C69.8376262,51.2706575 70.5740937,51.5125959 71.2162188,51.4745553 C72.575029,51.3847793 73.2551951,50.2816018 73.2551951,48.1619793 Z M74.8544219,48.25632 C74.8544219,49.4112327 74.5835731,50.369856 74.0388314,51.1321897 C73.4317032,51.9949506 72.5902451,52.4392647 71.5144572,52.4636117 C70.7034313,52.4894793 69.86806,52.2353671 69.0083417,51.7027988 L69.0083417,56.6343831 L67.6175772,56.1383339 L67.6175772,45.1917688 C67.8458202,44.9117899 68.139494,44.6713733 68.4955542,44.4674757 C69.3233182,43.9851209 70.3291108,43.7370961 71.5129351,43.724923 L71.5327159,43.7447041 C72.6145905,43.7310095 73.4484413,44.1753239 74.0342667,45.0761254 C74.580529,45.9023673 74.8544219,46.9614178 74.8544219,48.25632 Z" id="path46"></path>
            <path d="M83.3542141,51.4928148 C83.3542141,53.0418283 83.1990089,54.1145736 82.8885986,54.7110504 C82.5766646,55.3075272 81.9832319,55.7837957 81.1067754,56.1383339 C80.3961771,56.418312 79.6277569,56.5704746 78.803037,56.5963421 L78.5732719,55.7198872 C79.4116858,55.6057656 80.0020774,55.4916425 80.344442,55.377521 C81.0185214,55.1492779 81.4810959,54.7993044 81.7352065,54.3306432 C81.9391041,53.9487154 82.0395317,53.2198584 82.0395317,52.1410266 L82.0395317,51.7788801 C81.0885167,52.2110216 80.0918519,52.4255707 79.0495404,52.4255707 C78.3648095,52.4255707 77.7607239,52.2110216 77.2403292,51.7788801 C76.6560243,51.3086982 76.3638727,50.7122214 76.3638727,49.98945 L76.3638727,44.2011914 L77.7546372,43.724923 L77.7546372,49.5512222 C77.7546372,50.1735666 77.9554922,50.6528781 78.3572007,50.9891571 C78.7589092,51.3254361 79.2793055,51.4867282 79.916866,51.4745553 C80.5544264,51.4608606 81.2376351,51.2143574 81.9634496,50.7320027 L81.9634496,43.9349073 L83.3542141,43.9349073 L83.3542141,51.4928148 Z" id="path48"></path>
            <path d="M88.7833698,52.3875297 C88.6175132,52.4012237 88.4653506,52.4073104 88.3253615,52.4073104 C87.5386811,52.4073104 86.9254677,52.220151 86.4872386,51.8443098 C86.0505332,51.4684687 85.8314195,50.9495948 85.8314195,50.2876883 L85.8314195,44.8098411 L84.8788825,44.8098411 L84.8788825,43.9349073 L85.8314195,43.9349073 L85.8314195,41.611387 L87.2206619,41.1168592 L87.2206619,43.9349073 L88.7833698,43.9349073 L88.7833698,44.8098411 L87.2206619,44.8098411 L87.2206619,50.2496477 C87.2206619,50.7715648 87.360651,51.1413195 87.6406307,51.3573902 C87.8810473,51.5354202 88.262975,51.637369 88.7833698,51.6632367 L88.7833698,52.3875297 Z" id="path50"></path>
            <path d="M97.2040388,52.2734081 L95.8132743,52.2734081 L95.8132743,46.9051176 C95.8132743,46.3588546 95.6854572,45.8886727 95.4313466,45.4960937 C95.1376728,45.0517794 94.7298776,44.8296222 94.2064387,44.8296222 C93.5688782,44.8296222 92.7715464,45.1659011 91.8144463,45.8384591 L91.8144463,52.2734081 L90.4236802,52.2734081 L90.4236802,39.4415509 L91.8144463,39.0033231 L91.8144463,44.8478818 C92.7030747,44.2011914 93.6738704,43.8770855 94.7283555,43.8770855 C95.4648214,43.8770855 96.0612982,44.1251103 96.5177859,44.6196381 C96.9757942,45.1141659 97.2040388,45.7304238 97.2040388,46.4668899 L97.2040388,52.2734081 L97.2040388,52.2734081 Z" id="path52"></path>
            <path d="M104.596089,47.9428655 C104.596089,47.0694531 104.430232,46.3482032 104.100039,45.7775942 C103.70746,45.0822118 103.097289,44.7155005 102.272568,44.6774597 C100.747901,44.7657141 99.9870899,45.8582402 99.9870899,47.9519951 C99.9870899,48.91214 100.145338,49.7140359 100.464879,50.357683 C100.872674,51.1778385 101.484367,51.5825905 102.299958,51.5688959 C103.830711,51.5567229 104.596089,50.3485533 104.596089,47.9428655 Z M106.119235,47.9519951 C106.119235,49.1951622 105.801216,50.2298666 105.166698,51.0561086 C104.468273,51.981256 103.503563,52.4453515 102.272568,52.4453515 C101.052226,52.4453515 100.101211,51.981256 99.4149585,51.0561086 C98.7926142,50.2298666 98.4822023,49.1951622 98.4822023,47.9519951 C98.4822023,46.7833877 98.8184817,45.8004185 99.491039,45.0000442 C100.201639,44.1509778 101.135916,43.724923 102.290828,43.724923 C103.445741,43.724923 104.386104,44.1509778 105.110398,45.0000442 C105.782956,45.8004185 106.119235,46.7833877 106.119235,47.9519951 Z" id="path54"></path>
            <path d="M114.092546,52.2734081 L112.701781,52.2734081 L112.701781,46.6007928 C112.701781,45.9784485 112.514622,45.4930504 112.140301,45.1430768 C111.765982,44.7946248 111.266889,44.6257245 110.644545,44.6394192 C109.984161,44.6515922 109.35573,44.8676629 108.759253,45.2861094 L108.759253,52.2734081 L107.368488,52.2734081 L107.368488,45.1141659 C108.168863,44.5313839 108.905329,44.1509778 109.577886,43.9729478 C110.212404,43.8070908 110.772362,43.724923 111.254717,43.724923 C111.58491,43.724923 111.89532,43.7568772 112.187472,43.8207854 C112.733736,43.9470802 113.17805,44.1814103 113.520414,44.5252973 C113.902342,44.9057035 114.092546,45.3621907 114.092546,45.8962809 L114.092546,52.2734081 Z" id="path56"></path>
            <path d="M51.3790852,40.0692135 C53.3983214,40.402539 55.0980054,41.9066357 55.0980054,43.9038339 L55.0980054,50.9201974 C55.0980054,52.9780009 53.4479068,54.6639112 51.3790852,54.6639112 L43.9439987,54.6639112 C41.4206424,54.6639112 39.2939708,56.8153747 39.2939708,59.2478247 L39.2939708,62.6141363 L36.7375572,62.6141363 C34.5750736,62.6141363 33.3161502,61.0549456 32.7872371,58.873178 C32.0737552,55.9421184 32.1040575,54.1956028 32.7872371,51.388506 C33.3795095,48.9395279 35.272027,47.6475473 37.4345104,47.6475473 L47.6629188,47.6475473 L47.6629188,46.7109302 L40.2250783,46.7109302 L40.2250783,43.9038339 C40.2250783,41.7771623 40.7953128,40.6201647 43.9439987,40.0692135 C46.08169,39.6945667 48.8226724,39.6477359 51.3790852,40.0692135 Z M43.4784451,42.0333545 C42.7071135,42.0333545 42.0845386,42.6614388 42.0845386,43.4382801 C42.0845386,44.2123666 42.7071135,44.8404509 43.4784451,44.8404509 C44.2470219,44.8404509 44.872351,44.2123666 44.872351,43.4382801 C44.872351,42.6614388 44.2470219,42.0333545 43.4784451,42.0333545 Z" id="Combined-Shape"></path>
            <path d="M58.8169271,47.6475473 C60.9821641,47.6475473 62.0014244,49.2563248 62.5358472,51.388506 C63.2796316,54.3498682 63.312688,56.5646922 62.5358472,58.873178 C61.7837984,61.1155493 60.9794103,62.6141363 58.8169271,62.6141363 L47.6629188,62.6141363 L47.6629188,63.5507531 L55.0980054,63.5507531 L55.0980054,66.3578499 C55.0980054,68.4845214 53.2523189,69.5616316 51.3790852,70.0988082 C48.5609701,70.908707 46.299316,70.7847426 43.9439987,70.0988082 C41.9771031,69.5258198 40.2250783,68.3550479 40.2250783,66.3578499 L40.2250783,59.3414864 C40.2250783,57.3222502 41.9082341,55.5977727 43.9439987,55.5977727 L51.3790852,55.5977727 C53.8556115,55.5977727 56.0291131,53.4573276 56.0291131,50.9201974 L56.0291131,47.6475473 L58.8169271,47.6475473 Z M51.8446398,65.4212331 C51.076062,65.4212331 50.4507328,66.0493176 50.4507328,66.8234045 C50.4507328,67.6002453 51.076062,68.2283298 51.8446398,68.2283298 C52.6159715,68.2283298 53.2385453,67.6002453 53.2385453,66.8234045 C53.2385453,66.0493176 52.6159715,65.4212331 51.8446398,65.4212331 Z" id="Combined-Shape"></path>
            <path d="M73.3437466,64.599195 C73.3437466,65.5073884 73.1292038,66.2608886 72.7001385,66.8596942 C72.2211693,67.5383438 71.5576039,67.8876481 70.7094424,67.9076087 C70.0708205,67.9275693 69.412246,67.7279664 68.7337159,67.3088 L68.7337159,71.1860815 L67.6560468,70.7968575 L67.6710131,62.1889928 C67.8506247,61.9694356 68.0801276,61.779813 68.359525,61.620125 C69.0081193,61.2408861 69.7964139,61.0462733 70.7244103,61.0362868 L70.7393782,61.0512572 C71.5875397,61.0412847 72.2411249,61.390589 72.7001385,62.0991717 C73.1292038,62.747885 73.3437466,63.5812246 73.3437466,64.599195 M72.0864661,64.5243443 C72.0864661,62.7379047 71.5725718,61.8197342 70.5447988,61.7698264 C70.1356797,61.7498721 69.7365439,61.814744 69.3473883,61.9644392 C69.0380551,62.0742272 68.8285078,62.1840074 68.718748,62.2937844 L68.718748,66.5602914 C69.3773209,66.9694775 69.9610575,67.1590986 70.469961,67.1291577 C71.5476253,67.0592987 72.0864661,66.1910281 72.0864661,64.5243443 M80.2543499,64.3596709 C80.2543499,65.3377264 80.004882,66.1511069 79.5059681,66.799814 C78.9571487,67.5283635 78.1987899,67.8926382 77.2308869,67.8926382 C76.2729563,67.8926382 75.524576,67.5283635 74.9857431,66.799814 C74.4967999,66.1511069 74.2523292,65.3377264 74.2523292,64.3596709 C74.2523292,63.4415035 74.5167556,62.6680442 75.0456131,62.0392899 C75.6044032,61.3706284 76.3378156,61.0362868 77.2458548,61.0362868 C78.1538878,61.0362868 78.8922895,61.3706284 79.4610644,62.0392899 C79.9899157,62.6680442 80.2543499,63.4415035 80.2543499,64.3596709 M79.0569393,64.3596709 C79.0569393,63.6710457 78.9272145,63.1021795 78.6677805,62.653069 C78.3584442,62.1041665 77.8794813,61.814744 77.2308869,61.7847969 C76.0334748,61.8546637 75.4347718,62.712954 75.4347718,64.3596709 L75.4497397,64.3596709 C75.4497382,65.1181644 75.5744674,65.7519026 75.8239306,66.2608871 C76.1432377,66.9095957 76.6222007,67.2289607 77.2608227,67.2189788 C78.4582286,67.2090001 79.0569393,66.2558985 79.0569393,64.3596709 M89.742892,61.2758109 L87.9617433,67.5632945 L87.0636858,67.8776678 L85.3424086,62.653069 L83.9354507,67.5632945 L83.0373932,67.8776678 L80.9269572,61.3955714 L81.9297883,61.0362868 L83.6061635,66.141125 L84.9382819,61.3955714 L85.9411131,61.0362868 L87.6324561,66.141125 L89.0693481,61.0362868 L89.742892,61.2758109 M95.6422466,67.1590986 C95.2231474,67.428562 94.8489565,67.6131945 94.5196739,67.7129959 C94.1205334,67.832758 93.7164068,67.8926382 93.3072955,67.8926382 C92.5788677,67.8926382 92.0001204,67.7080058 91.5710504,67.3387409 C90.7927328,66.6800535 90.4085633,65.7618814 90.4185419,64.5842246 C90.4285205,63.6161556 90.6280892,62.8177456 91.017248,62.1889928 C91.4862324,61.4504693 92.164764,61.0811981 93.0528461,61.0811981 C94.7092594,61.0811981 95.5524346,62.1740286 95.5823767,64.3596709 L91.5710504,64.3596709 C91.5111788,65.2079856 91.6708332,65.8966139 92.0500149,66.4255589 C92.429192,66.9445268 92.9281122,67.1940296 93.5467785,67.174069 C94.0656512,67.1541084 94.6793236,66.9744677 95.3877973,66.6351421 L95.6422466,67.1590986 M94.4897382,63.7309228 C94.4897382,63.2019809 94.3799721,62.7528752 94.1604509,62.3836056 C93.9010076,61.9644454 93.5467739,61.7548575 93.0977482,61.7548575 C92.1996891,61.7548575 91.7007689,62.408561 91.6009862,63.7159524 L94.4897382,63.7309228 M100.938916,61.0662277 C100.839128,61.2658368 100.69444,61.560251 100.504855,61.9494687 C100.225456,61.8895947 100.020898,61.8596538 99.8911826,61.8596476 L99.8762148,61.8596476 C99.2775071,61.8596538 98.7436619,62.0592567 98.2746775,62.4584563 L98.2746775,67.7579073 L97.1820406,67.7579073 L97.1820406,62.3087549 C97.591155,61.8496735 98.1100323,61.5103495 98.7386742,61.2907813 C99.2874842,61.0911847 99.7764273,60.991377 100.205502,60.991377 C100.44498,60.991377 100.689451,61.016334 100.938916,61.0662277 M106.897204,67.1590986 C106.478105,67.428562 106.103914,67.6131945 105.774631,67.7129959 C105.375491,67.832758 104.971364,67.8926382 104.562253,67.8926382 C103.833825,67.8926382 103.255078,67.7080058 102.826008,67.3387409 C102.04769,66.6800535 101.663521,65.7618814 101.673499,64.5842246 C101.683478,63.6161556 101.883046,62.8177456 102.272205,62.1889928 C102.74119,61.4504693 103.419721,61.0811981 104.307803,61.0811981 C105.964217,61.0811981 106.807392,62.1740286 106.837332,64.3596709 L102.826008,64.3596709 C102.766136,65.2079856 102.92579,65.8966139 103.304972,66.4255589 C103.684149,66.9445268 104.183069,67.1940296 104.801736,67.174069 C105.320608,67.1541084 105.934281,66.9744677 106.642754,66.6351421 L106.897204,67.1590986 M105.744695,63.7309228 C105.744695,63.2019809 105.634929,62.7528752 105.415408,62.3836056 C105.155965,61.9644454 104.801731,61.7548575 104.352705,61.7548575 C103.454646,61.7548575 102.955725,62.408561 102.855943,63.7159524 L105.744695,63.7309228 M113.720574,66.7249633 C112.742685,67.4834537 111.694951,67.8676875 110.577371,67.8776678 C109.749161,67.8776678 109.095574,67.5034127 108.616612,66.7549026 C108.197518,66.1061955 107.987971,65.3427165 107.987971,64.4644625 C107.987971,63.5862147 108.212486,62.8127554 108.661514,62.1440815 C109.170413,61.3955776 109.848945,61.0263143 110.697113,61.0362868 C111.345707,61.0362946 111.999292,61.1959763 112.657873,61.5153334 L112.657873,57.6679928 L113.705606,57.3087082 L113.720574,66.7249633 M112.657873,66.6052012 L112.657873,62.3536647 C112.019249,61.9544651 111.455468,61.7548575 110.96653,61.7548575 C110.347865,61.7548575 109.878879,62.0792173 109.559572,62.7279197 C109.300132,63.2468907 109.170415,63.850688 109.170415,64.5393132 C109.170415,65.1980053 109.295142,65.7718617 109.544606,66.2608871 C109.853934,66.8996154 110.307951,67.2189788 110.90666,67.2189788 C111.465447,67.2189788 112.049185,67.0143873 112.657873,66.6052012" id="text1662" transform="translate(90.688310, 64.247395) rotate(1.060718) translate(-90.688310, -64.247395) "></path>
        </g>
    </g>
</svg>
